X: 60
T: Zweitritt
B:[[Notböcker/Melodier til gamle danske Almuedanse for Violin solo]]
O:Danmark
Z:Søren Bak Vestergaard
M: 3/8
L: 1/8
K: C
!downbow!ezc|(cB)c|ezc|(cB)c|dzd|def|(ag)g|g2 !upbow!f|\
ezc|(cB)c|ezc|(cB)c|def|GAB|(dc)c|c2 z||\
c'zc'|c'ba|agg|g2 e|(ed)d|def|agg|g2 c|\
c'zc'|c'ba|agg|g2 e|def|GAB|(dc)c|c2 z|]

